icons/svg/16x16/poi/outline.svg

<svg width="16" height="16" fill="none" xmlns="http://www.w3.org/2000/svg">
  <path fill-rule="evenodd" clip-rule="evenodd" d="M10 6a2 2 0 11-4 0 2 2 0 014 0zm-2 7.224C6.28 11.416 4 8.463 4 6c0-2.206 1.794-4 4-4s4 1.794 4 4c0 2.464-2.281 5.417-4 7.224zM8 0a6 6 0 00-6 6c0 4.83 6 10 6 10s6-5.17 6-10a6 6 0 00-6-6z" fill="#000"/>
</svg>

<svg xmlns="http://www.w3.org/2000/svg" width="16" height="16" viewBox="0 0 16 16">
  <path fill-rule="evenodd" d="M11,6 C11,7.657 9.657,9 8,9 C6.343,9 5,7.657 5,6 C5,4.343 6.343,3 8,3 C9.657,3 11,4.343 11,6 M8,13.224 C6.28,11.416 4,8.463 4,6 C4,3.794 5.794,2 8,2 C10.206,2 12,3.794 12,6 C12,8.464 9.719,11.417 8,13.224 M8,0 C4.687,0 2,2.687 2,6 C2,10.83 8,16 8,16 C8,16 14,10.83 14,6 C14,2.687 11.313,0 8,0"/>
</svg>
